X:345
T: Et kent e Kniebchen (4-44), S. 60
N: P0605
O: Lothringen
S: PINCK, Louis: Verklingende Weisen Bd 4, Kassel 1939]
R: Berufslied]
M: 2/4
L: 1/16
K: F
c2 | c2A2B2AG | A2B2c2
d2 | c2A2B2AG | A2B2c2
C2 | F2G2AGF2 | B2A2G2z2
c4AFG2 | F2F2F2
C2 | F2G2AGF2 | B2A2G2z2
c4AFG2 | F4z2

